luts/Leeming LUT Pro 4 - Rec709 OTF - GoPro 11 12 13 - GP-Log.cube
# Leeming LUT Pro 4
# (C) 2024 Visceral Psyche Films
# Range: Full In / Full Out
# Type: 33 x 33 x 33 Cube LUT
# Colour Space: Rec709
# Output Gamma: BT.1886
# Exposure: ETTR
# Build Number: 2024111405
# OTF Build Number: 2024113005
TITLE "Leeming LUT Pro 4 - Rec709 OTF - GoPro 11 12 13 - GP-Log"
LUT_3D_SIZE 33
DOMAIN_MIN 0.0 0.0 0.0
DOMAIN_MAX 1.0 1.0 1.0
0.000000 0.000000 0.000000
0.002564 0.000076 0.000824
0.005402 0.000168 0.001694
0.009094 0.000107 0.002472
0.013657 0.000000 0.003006
0.019669 0.000000 0.003296
0.027741 0.000000 0.003266
0.037460 0.000000 0.003007
0.049286 0.000000 0.002610
0.062286 0.000000 0.002382
0.076538 0.000000 0.002138
0.092087 0.000000 0.001879
0.108612 0.000000 0.001879
0.126358 0.000000 0.002230
0.144516 0.000000 0.002887
0.163590 0.000000 0.004062
0.184097 0.000000 0.005588
0.207977 0.000000 0.007939
0.235108 0.000000 0.011754
0.264160 0.000000 0.016820
0.294587 0.000000 0.023016
0.326463 0.000000 0.030921
0.361680 0.000000 0.041404
0.399888 0.000000 0.054085
0.439835 0.000000 0.068002
0.482545 0.000000 0.084559
0.527528 0.000000 0.102840
0.574724 0.000000 0.122876
0.626619 0.000000 0.146192
0.684832 0.000000 0.173247
0.748278 0.000000 0.203857
0.763995 0.000000 0.211549
0.765780 0.000000 0.212525
0.000000 0.003601 0.000000
0.003372 0.003082 0.000183
0.009705 0.001572 0.001404
0.019287 0.000000 0.001236
0.026337 0.000000 0.001252
0.034653 0.000000 0.000947
0.045227 0.000000 0.000520
0.057114 0.000000 0.000016
0.070709 0.000000 0.000001
0.085022 0.000000 0.000002
0.100052 0.000000 0.000002
0.116119 0.000000 0.000002
0.133240 0.000000 0.000003
0.150803 0.000000 0.000003
0.169343 0.000000 0.000614
0.188904 0.000000 0.002247
0.210266 0.000000 0.004185
0.234788 0.000000 0.007253
0.261475 0.000000 0.011526
0.289933 0.000000 0.017111
0.319795 0.000000 0.024070
0.351242 0.000000 0.032890
0.386292 0.000000 0.043907
0.423951 0.000000 0.056909
0.463624 0.000000 0.071482
0.505997 0.000000 0.088160
0.550477 0.000000 0.106686
0.597642 0.000000 0.127362
0.649019 0.000000 0.150892
0.707033 0.000000 0.178176
0.770114 0.000000 0.208802
0.785433 0.000000 0.216554
0.787340 0.000000 0.217485
0.000000 0.007462 0.000000
0.000000 0.008347 0.000000
0.007019 0.006424 0.000397
0.015763 0.004272 0.001877
0.028672 0.001144 0.001038
0.047974 0.000000 0.000001
0.066864 0.000000 0.000001
0.080307 0.000000 0.000002
0.095657 0.000000 0.000002
0.110458 0.000000 0.000002
0.125824 0.000000 0.000002
0.141983 0.000000 0.000003
0.158829 0.000000 0.000003
0.176834 0.000000 0.000003
0.195923 0.000000 0.000004
0.216065 0.000000 0.000004
0.237565 0.000000 0.002355
0.261810 0.000000 0.005849
0.288025 0.000000 0.010534
0.315812 0.000000 0.016913
0.345169 0.000000 0.024772
0.376344 0.000000 0.034233
0.410721 0.000000 0.045769
0.447846 0.000000 0.059000
0.487352 0.000000 0.074030
0.529328 0.000000 0.090999
0.573564 0.000000 0.109875
0.620287 0.000000 0.131010
0.671862 0.000000 0.155226
0.729449 0.000000 0.182876
0.791903 0.000000 0.213456
0.807177 0.000000 0.221162
0.809069 0.000000 0.222017
0.000000 0.012177 0.000000
0.000000 0.015030 0.000000
0.002457 0.013397 0.000000
0.012344 0.010895 0.000458
0.024613 0.007919 0.002671
0.042206 0.003830 0.001618
0.065460 0.000000 0.000001
0.092819 0.000000 0.000002
0.122055 0.000000 0.000002
0.136475 0.000000 0.000003
0.152130 0.000000 0.000003
0.169678 0.000000 0.000003
0.187012 0.000000 0.000004
0.205506 0.000000 0.000004
0.224839 0.000000 0.000004
0.244843 0.000000 0.000005
0.266022 0.000000 0.000005
0.289444 0.000000 0.003363
0.314866 0.000000 0.008780
0.342102 0.000000 0.016120
0.371308 0.000000 0.024986
0.402085 0.000000 0.035103
0.435975 0.000000 0.046853
0.472734 0.000000 0.060556
0.511536 0.000000 0.075846
0.553300 0.000000 0.093517
0.597337 0.000000 0.113079
0.643938 0.000000 0.134657
0.695223 0.000000 0.159362
0.752169 0.000000 0.186890
0.812457 0.000000 0.217393
0.812930 0.000000 0.220658
0.812991 0.000000 0.221055
0.000000 0.018555 0.000000
0.000000 0.022080 0.000000
0.000000 0.022767 0.000000
0.006149 0.020447 0.000000
0.019303 0.017029 0.000702
0.036179 0.012741 0.003129
0.058793 0.007263 0.002030
0.085374 0.000946 0.000001
0.114990 0.000000 0.000002
0.145157 0.000000 0.000003
0.175888 0.000000 0.000003
0.198319 0.000000 0.000004
0.215424 0.000000 0.000004
0.235062 0.000000 0.000005
0.255585 0.000000 0.000005
0.275498 0.000000 0.000005
0.295746 0.000000 0.000006
0.318252 0.000000 0.000006
0.343155 0.000000 0.006339
0.370194 0.000000 0.014671
0.398790 0.000000 0.024025
0.428757 0.000000 0.034493
0.462175 0.000000 0.046747
0.498643 0.000000 0.061167
0.537553 0.000000 0.077449
0.578721 0.000000 0.095516
0.622499 0.000000 0.115812
0.669038 0.000000 0.138243
0.719500 0.000000 0.162765
0.775881 0.000000 0.190583
0.811984 0.000000 0.214051
0.812441 0.000000 0.217256
0.812502 0.000000 0.217652
0.000000 0.026947 0.000000
0.000000 0.031052 0.000000
0.000000 0.035493 0.000000
0.000000 0.032609 0.000000
0.009903 0.029786 0.000000
0.029084 0.024857 0.000413
0.051713 0.019333 0.004106
0.078553 0.012894 0.003114
0.107865 0.006210 0.000612
0.138748 0.000000 0.000003
0.170395 0.000000 0.000003
0.203400 0.000000 0.000004
0.237580 0.000000 0.000005
0.268082 0.000000 0.000005
0.285645 0.000000 0.000006
0.304230 0.000000 0.000006
0.325394 0.000000 0.000006
0.349228 0.000000 0.000007
0.374223 0.000000 0.002800
0.400498 0.000000 0.011711
0.427964 0.000000 0.021539
0.457368 0.000000 0.032251
0.490479 0.000000 0.045496
0.526750 0.000000 0.060847
0.565186 0.000000 0.078075
0.606141 0.000000 0.097180
0.649492 0.000000 0.118299
0.695635 0.000000 0.140838
0.745394 0.000000 0.165604
0.801348 0.000000 0.194016
0.811358 0.000000 0.209733
0.811846 0.000000 0.213105
0.811907 0.000000 0.213517
0.000000 0.037537 0.000000
0.000000 0.042817 0.000000
0.000000 0.048783 0.000000
0.000000 0.049531 0.000000
0.001419 0.046952 0.000000
0.016464 0.042847 0.000000
0.042115 0.036423 0.000413
0.070618 0.029358 0.005082
0.100969 0.021835 0.005480
0.132569 0.014496 0.003878
0.163759 0.007659 0.001559
0.197558 0.000411 0.000003
0.233292 0.000000 0.000005
0.268875 0.000000 0.000005
0.303605 0.000000 0.000006
0.337509 0.000000 0.000007
0.357590 0.000000 0.000007
0.378831 0.000000 0.000618
0.404022 0.000000 0.006310
0.431351 0.000000 0.010018
0.459504 0.000000 0.016687
0.488450 0.000000 0.028544
0.521195 0.000000 0.043055
0.556902 0.000000 0.059734
0.594926 0.000000 0.077832
0.635515 0.000000 0.098005
0.678316 0.000000 0.119383
0.723772 0.000000 0.142624
0.773119 0.000000 0.167984
0.808679 0.000607 0.190674
0.810595 0.000000 0.204332
0.811053 0.000000 0.207551
0.811114 0.000000 0.207963
0.000000 0.051728 0.000000
0.000000 0.057954 0.000000
0.000000 0.064302 0.000000
0.000000 0.071138 0.000000
0.000000 0.066560 0.000000
0.005295 0.063951 0.000000
0.024689 0.058320 0.000001
0.058671 0.050065 0.000001
0.092118 0.041901 0.006227
0.124970 0.033615 0.007708
0.157732 0.026230 0.007602
0.192156 0.018997 0.007175
0.228198 0.011764 0.005817
0.265231 0.003890 0.003422
0.302354 0.000000 0.001074
0.337814 0.000000 0.000007
0.373337 0.000000 0.000007
0.411148 0.000000 0.000008
0.436784 0.000000 0.003518
0.460939 0.000000 0.014688
0.488831 0.000000 0.023005
0.520066 0.000000 0.029551
0.553910 0.000000 0.039287
0.588792 0.000000 0.056958
0.626131 0.000000 0.076108
0.666124 0.000000 0.097075
0.708406 0.000000 0.119079
0.753343 0.000000 0.143173
0.801965 0.002285 0.169464
0.807657 0.001415 0.183518
0.809618 0.000000 0.197405
0.810122 0.000000 0.200975
0.810183 0.000000 0.201403
0.000000 0.068162 0.000000
0.000000 0.075013 0.000000
0.000000 0.082307 0.000000
0.000000 0.090456 0.000000
0.000000 0.091905 0.000000
0.000000 0.088380 0.000000
0.013016 0.084611 0.000001
0.038193 0.077195 0.000001
0.078400 0.067567 0.000002
0.115525 0.058152 0.007189
0.150728 0.049088 0.011004
0.186052 0.041031 0.012546
0.222857 0.033264 0.013081
0.260684 0.025314 0.012852
0.298588 0.017287 0.012059
0.336064 0.009459 0.010534
0.373936 0.002242 0.009802
0.414109 0.000000 0.009530
0.454926 0.000000 0.008081
0.496659 0.000000 0.007441
0.522477 0.000000 0.021693
0.550156 0.000000 0.037548
0.583466 0.000000 0.048123
0.620332 0.000000 0.057370
0.658418 0.000000 0.072386
0.697908 0.000000 0.094283
0.739518 0.000000 0.117675
0.783578 0.002819 0.142699
0.804514 0.003903 0.161179
0.806436 0.002407 0.174805
0.808496 0.000759 0.189408
0.809015 0.000332 0.193101
0.809076 0.000271 0.193543
0.000000 0.087022 0.000000
0.000000 0.094881 0.000000
0.000000 0.103120 0.000000
0.000000 0.111406 0.000001
0.000000 0.120241 0.000001
0.000000 0.114260 0.000001
0.001495 0.111681 0.000001
0.023666 0.106508 0.000001
0.055253 0.097505 0.000001
0.099931 0.086702 0.000002
0.140153 0.076432 0.008242
0.178270 0.066498 0.013538
0.216174 0.057861 0.016987
0.255710 0.049606 0.019398
0.295017 0.041122 0.020376
0.332890 0.033187 0.020910
0.371769 0.025267 0.021460
0.414814 0.017180 0.022224
0.459127 0.008635 0.023033
0.502946 0.000000 0.022120
0.547913 0.000000 0.022563
0.584931 0.000000 0.030819
0.614946 0.000000 0.049848
0.648896 0.000000 0.069227
0.688341 0.000000 0.079802
0.730004 0.000043 0.092023
0.770929 0.004162 0.114516
0.801035 0.006558 0.136185
0.802927 0.005139 0.149750
0.804987 0.003536 0.164536
0.807199 0.001782 0.180283
0.807718 0.001370 0.183930
0.807779 0.001324 0.184388
0.000000 0.108049 0.000001
0.000000 0.116396 0.000001
0.000000 0.124804 0.000001
0.000000 0.133669 0.000001
0.000000 0.143511 0.000001
0.000000 0.144884 0.000001
0.000000 0.139773 0.000001
0.011536 0.136873 0.000001
0.037613 0.129763 0.000001
0.075730 0.119722 0.000002
0.123460 0.107515 0.000002
0.167268 0.096589 0.009448
0.207842 0.085969 0.016712
0.248370 0.076340 0.021626
0.289310 0.067398 0.024877
0.329746 0.058334 0.027716
0.368839 0.050048 0.029960
0.411885 0.041945 0.032371
0.459249 0.033034 0.035317
0.506720 0.023329 0.036813
0.553946 0.013410 0.038141
0.600760 0.003415 0.039668
0.649629 0.000000 0.041990
0.682313 0.000000 0.064757
0.717652 0.000000 0.089263
0.758080 0.003369 0.104674
0.795206 0.008130 0.115492
0.799066 0.008007 0.121795
0.801111 0.006512 0.136642
0.803323 0.004834 0.152634
0.805673 0.003002 0.169403
0.806238 0.002560 0.173371
0.806299 0.002514 0.173798
0.000000 0.131228 0.000001
0.000000 0.140124 0.000001
0.000000 0.149050 0.000001
0.000000 0.158251 0.000001
0.000000 0.168124 0.000001
0.000000 0.178317 0.000001
0.000000 0.171115 0.000001
0.000122 0.167422 0.000001
0.023377 0.163577 0.000001
0.053528 0.154391 0.000856
0.097032 0.143938 0.000002
0.148622 0.130663 0.000003
0.195833 0.118760 0.011005
0.238772 0.107636 0.019490
0.281467 0.097077 0.025930
0.323658 0.087631 0.030737
0.365375 0.078064 0.035132
0.409016 0.068893 0.039390
0.456060 0.059936 0.044579
0.505377 0.050200 0.048547
0.556769 0.039595 0.051859
0.607642 0.029890 0.055781
0.658439 0.017805 0.058346
0.712425 0.006314 0.061658
0.752435 0.005032 0.082212
0.788827 0.008038 0.109297
0.788324 0.007107 0.116133
0.794305 0.007962 0.115630
0.798944 0.008099 0.120895
0.801340 0.006329 0.138351
0.803858 0.004422 0.156448
0.804453 0.003949 0.160797
0.804529 0.003887 0.161316
0.000000 0.156939 0.000001
0.000000 0.165866 0.000001
0.000000 0.174838 0.000001
0.000000 0.184482 0.000001
0.000000 0.194354 0.000001
0.000000 0.205112 0.000001
0.000000 0.206287 0.000001
0.000000 0.200427 0.000001
0.010925 0.196963 0.000001
0.037842 0.191455 0.002077
0.070817 0.181231 0.001665
0.121735 0.170230 0.000003
0.176058 0.155718 0.000003
0.225192 0.143205 0.012196
0.270740 0.130891 0.021947
0.314945 0.119477 0.029700
0.359440 0.109635 0.036338
0.404957 0.098892 0.042793
0.452718 0.088806 0.049370
0.502493 0.079452 0.056802
0.553901 0.068358 0.062495
0.608848 0.057860 0.068294
0.665626 0.046537 0.074795
0.721230 0.033231 0.078901
0.776941 0.020749 0.083113
0.794992 0.010861 0.091689
0.797205 0.009366 0.107955
0.786691 0.006772 0.116240
0.793527 0.007885 0.115767
0.799020 0.008053 0.121414
0.801721 0.006054 0.141052
0.802377 0.005551 0.145843
0.802454 0.005490 0.146408
0.000000 0.183871 0.000001
0.000000 0.193027 0.000001
0.000000 0.202319 0.000001
0.000000 0.212238 0.000001
0.000000 0.222339 0.000001
0.000000 0.233127 0.000001
0.000000 0.244007 0.000001
0.000000 0.235584 0.000001
0.000702 0.231601 0.000001
0.023407 0.228336 0.000001
0.053803 0.220661 0.004885
0.091325 0.209049 0.002703
0.148256 0.197574 0.000003
0.204684 0.182192 0.000004
0.255969 0.168886 0.013494
0.303592 0.156068 0.024283
0.350513 0.143831 0.033683
0.399037 0.132401 0.042503
0.447957 0.120590 0.050942
0.499578 0.110168 0.060480
0.550421 0.099105 0.068766
0.604499 0.087935 0.077205
0.665870 0.076552 0.086667
0.726983 0.062635 0.094206
0.787103 0.049772 0.101592
0.806421 0.029736 0.094329
0.794336 0.011303 0.086775
0.796548 0.009823 0.103118
0.787561 0.006924 0.116179
0.793329 0.007855 0.115813
0.799280 0.007855 0.123306
0.799966 0.007351 0.128326
0.800058 0.007290 0.128952
0.000000 0.212482 0.000001
0.000000 0.221805 0.000001
0.000000 0.231205 0.000001
0.000000 0.241230 0.000001
0.000000 0.251469 0.000001
0.000000 0.262440 0.000001
0.000000 0.274128 0.000001
0.000000 0.274525 0.000001
0.000000 0.267643 0.000001
0.010773 0.264622 0.000001
0.037460 0.260121 0.003710
0.072419 0.250294 0.006777
0.113938 0.237324 0.003070
0.176927 0.225101 0.000004
0.234790 0.210009 0.000890
0.287754 0.195940 0.014685
0.338397 0.181764 0.026801
0.390064 0.167955 0.038261
0.441609 0.155503 0.048989
0.494085 0.143067 0.060022
0.546942 0.131241 0.071040
0.600120 0.119278 0.081234
0.659980 0.108077 0.093320
0.725350 0.093565 0.104521
0.792306 0.080717 0.116455
0.828791 0.061322 0.116333
0.811472 0.036359 0.099181
0.794656 0.013623 0.082930
0.796045 0.010159 0.099471
0.790430 0.007489 0.116042
0.793680 0.007901 0.115736
0.795541 0.008175 0.115462
0.795801 0.008221 0.115432
0.000000 0.242252 0.000001
0.000000 0.251698 0.000001
0.000000 0.261234 0.000001
0.000000 0.271351 0.000001
0.000000 0.281621 0.000001
0.000000 0.292607 0.000001
0.000000 0.304341 0.000001
0.000000 0.315602 0.000001
0.000000 0.305699 0.000001
0.000549 0.301519 0.000001
0.021393 0.298100 0.000002
0.053360 0.292058 0.007616
0.093659 0.280690 0.008029
0.138093 0.266178 0.002857
0.205950 0.253040 0.000004
0.265414 0.238086 0.001134
0.322024 0.222659 0.016196
0.377903 0.206866 0.030067
0.433080 0.192414 0.043862
0.486715 0.178239 0.056192
0.541693 0.165589 0.069529
0.596458 0.152649 0.081951
0.655738 0.140548 0.095868
0.719277 0.127425 0.110930
0.789117 0.112502 0.124969
0.847346 0.096388 0.135316
0.833109 0.068464 0.120636
0.818079 0.045102 0.105651
0.799020 0.020138 0.087187
0.795786 0.010342 0.097502
0.789697 0.007367 0.116057
0.787286 0.006878 0.116194
0.787576 0.006924 0.116179
0.000000 0.273854 0.000001
0.000000 0.283635 0.000001
0.000000 0.293202 0.000001
0.000000 0.303151 0.000001
0.000000 0.313619 0.000001
0.000000 0.324590 0.000002
0.000000 0.336248 0.000002
0.000000 0.348470 0.000002
0.000000 0.348913 0.000002
0.000000 0.340322 0.000002
0.009430 0.338019 0.000002
0.034149 0.333059 0.002779
0.071183 0.324895 0.010165
0.115525 0.312856 0.008518
0.163820 0.297185 0.002400
0.234484 0.283879 0.000005
0.298510 0.268359 0.001730
0.361103 0.250461 0.018608
0.421025 0.233569 0.035012
0.478551 0.217988 0.050577
0.534445 0.203385 0.064906
0.591422 0.189576 0.079876
0.651527 0.175781 0.095380
0.715599 0.163055 0.113020
0.781503 0.148116 0.130035
0.856333 0.133390 0.147752
0.850321 0.104902 0.138780
0.839930 0.079984 0.127503
0.823755 0.053357 0.111312
0.802332 0.024487 0.090377
0.795648 0.010434 0.096465
0.796396 0.009930 0.101974
0.796487 0.009869 0.102645
0.000000 0.310155 0.000001
0.000000 0.319600 0.000001
0.000000 0.329412 0.000002
0.000000 0.339147 0.000002
0.000000 0.349371 0.000002
0.000000 0.360571 0.000002
0.000000 0.372290 0.000002
0.000000 0.384527 0.000002
0.000000 0.397055 0.000002
0.000000 0.388037 0.000002
0.000900 0.381583 0.000002
0.020279 0.379325 0.000002
0.048722 0.372778 0.008105
0.089768 0.363378 0.013141
0.137788 0.350759 0.010060
0.187395 0.333959 0.003239
0.261995 0.319828 0.000006
0.335254 0.302524 0.002357
0.403096 0.283008 0.021431
0.465932 0.265383 0.040277
0.525442 0.247820 0.057887
0.584265 0.232896 0.074505
0.646110 0.217409 0.091901
0.711876 0.203797 0.111754
0.776864 0.188492 0.130813
0.847834 0.175079 0.152940
0.860392 0.147154 0.151719
0.855052 0.121046 0.144532
0.846201 0.093763 0.134065
0.829523 0.062497 0.117050
0.806848 0.030270 0.094725
0.800745 0.022382 0.088851
0.800150 0.021573 0.088286
0.000000 0.349691 0.000002
0.000000 0.359457 0.000002
0.000000 0.368963 0.000002
0.000000 0.378729 0.000002
0.000000 0.389059 0.000002
0.000000 0.400199 0.000002
0.000000 0.411795 0.000002
0.000000 0.423942 0.000002
0.000000 0.436302 0.000002
0.000000 0.441795 0.000002
0.000000 0.432320 0.000002
0.011825 0.427544 0.000002
0.032867 0.424888 0.005816
0.065354 0.417151 0.014636
0.109757 0.406653 0.017414
0.160173 0.393942 0.013249
0.211031 0.375387 0.005361
0.295123 0.358876 0.000006
0.375706 0.340382 0.003410
0.446843 0.320088 0.024576
0.512213 0.301226 0.045680
0.574163 0.281908 0.065395
0.639518 0.265444 0.085553
0.705879 0.249375 0.106642
0.773309 0.233750 0.128448
0.842387 0.218857 0.151841
0.869624 0.196013 0.161089
0.863581 0.168685 0.156694
0.859004 0.139540 0.149781
0.851161 0.107450 0.139756
0.835688 0.072584 0.123199
0.830637 0.064313 0.118179
0.830011 0.063291 0.117553
0.000000 0.392599 0.000002
0.000000 0.402259 0.000002
0.000000 0.411781 0.000002
0.000000 0.421501 0.000002
0.000000 0.431847 0.000002
0.000000 0.442711 0.000002
0.000000 0.454171 0.000002
0.000000 0.466134 0.000002
0.000000 0.478265 0.000002
0.000000 0.490548 0.000002
0.000000 0.488915 0.000002
0.001113 0.479745 0.000002
0.023926 0.476891 0.002353
0.047516 0.473473 0.015064
0.083603 0.464439 0.021976
0.130372 0.453422 0.023320
0.184252 0.440055 0.017660
0.240619 0.418723 0.007757
0.333865 0.400472 0.000007
0.417714 0.380910 0.004906
0.491201 0.360081 0.027613
0.559667 0.339862 0.050579
0.628150 0.318622 0.073728
0.698021 0.300691 0.097929
0.767877 0.283449 0.122207
0.837183 0.265870 0.146745
0.883021 0.246659 0.164523
0.875743 0.219116 0.163256
0.868342 0.190978 0.160386
0.862010 0.158232 0.154557
0.855235 0.121763 0.144761
0.853129 0.113111 0.142045
0.852671 0.112104 0.141557
0.000000 0.438149 0.000002
0.000000 0.447426 0.000002
0.000000 0.457054 0.000002
0.000000 0.466591 0.000002
0.000000 0.476540 0.000002
0.000000 0.487420 0.000002
0.000000 0.498712 0.000002
0.000000 0.510476 0.000002
0.000000 0.522470 0.000002
0.000000 0.534402 0.000003
0.000000 0.546411 0.000003
0.000000 0.538095 0.000003
0.014038 0.529733 0.000003
0.036331 0.527795 0.012164
0.062988 0.523782 0.024113
0.101990 0.513848 0.029591
0.152681 0.501793 0.029592
0.213610 0.486427 0.022268
0.276415 0.463035 0.010444
0.376057 0.442724 0.000008
0.461125 0.422918 0.007105
0.537176 0.401417 0.030879
0.611685 0.378727 0.056195
0.685585 0.356449 0.082686
0.757653 0.336504 0.109771
0.830469 0.317751 0.137208
0.896571 0.299257 0.164049
0.889354 0.271409 0.164538
0.882182 0.244064 0.164263
0.874019 0.212600 0.162814
0.864894 0.176665 0.158036
0.863429 0.167662 0.156495
0.863261 0.166518 0.156266
0.000000 0.486077 0.000002
0.000000 0.495202 0.000002
0.000000 0.504357 0.000002
0.000000 0.514062 0.000002
0.000000 0.523813 0.000002
0.000000 0.534097 0.000002
0.000000 0.545160 0.000003
0.000000 0.556971 0.000003
0.000000 0.568995 0.000003
0.000000 0.580942 0.000003
0.000000 0.592860 0.000003
0.000000 0.600901 0.000003
0.000000 0.589198 0.000003
0.026245 0.581446 0.006442
0.048202 0.579935 0.020985
0.077454 0.575266 0.032231
0.120713 0.564370 0.036596
0.179201 0.550423 0.034964
0.245745 0.532982 0.025977
0.315143 0.507301 0.012123
0.418919 0.485892 0.000970
0.505315 0.465582 0.009410
0.588217 0.442265 0.035580
0.666206 0.417363 0.061689
0.743096 0.393909 0.091522
0.818628 0.373217 0.120958
0.894541 0.353808 0.152621
0.902369 0.325930 0.161914
0.896495 0.299059 0.164019
0.888560 0.268403 0.164538
0.879603 0.233902 0.164019
0.877391 0.225312 0.163668
0.877101 0.224228 0.163607
0.000000 0.538522 0.000003
0.000000 0.547357 0.000003
0.000000 0.556696 0.000003
0.000000 0.566065 0.000003
0.000000 0.575785 0.000003
0.000000 0.586115 0.000003
0.000000 0.597224 0.000003
0.000000 0.608424 0.000003
0.000000 0.619945 0.000003
0.000000 0.631465 0.000003
0.000000 0.642879 0.000003
0.000000 0.654781 0.000003
0.000000 0.658153 0.000613
0.009780 0.646083 0.006030
0.036712 0.637691 0.013905
0.058121 0.635814 0.028080
0.090653 0.631068 0.039602
0.141786 0.618265 0.043097
0.206423 0.601755 0.039496
0.277651 0.582391 0.028694
0.352207 0.556008 0.013985
0.458805 0.533180 0.002649
0.553213 0.511237 0.012096
0.640571 0.485555 0.039213
0.721672 0.459569 0.067199
0.800988 0.434543 0.098969
0.880274 0.414173 0.131427
0.912760 0.388324 0.150897
0.908533 0.360736 0.156329
0.903025 0.329760 0.161319
0.895610 0.295732 0.164034
0.893626 0.287492 0.164446
0.893352 0.286454 0.164477
0.000000 0.595484 0.000003
0.000000 0.604197 0.000003
0.000000 0.612941 0.000003
0.000000 0.622172 0.000003
0.000000 0.631450 0.000003
0.000000 0.641231 0.000003
0.000000 0.651622 0.000003
0.000000 0.662426 0.000003
0.000000 0.673549 0.000003
0.000000 0.684460 0.000980
0.000000 0.695172 0.001926
0.000000 0.706311 0.002903
0.000000 0.717831 0.004093
0.000000 0.717862 0.007694
0.018722 0.706509 0.013203
0.045624 0.697628 0.020573
0.067642 0.694531 0.034581
0.105744 0.688931 0.046621
0.164384 0.674678 0.049140
0.234361 0.656229 0.043785
0.310214 0.634928 0.031487
0.388386 0.607781 0.015955
0.502904 0.582894 0.004131
0.604086 0.559394 0.014645
0.694054 0.531622 0.042403
0.779412 0.505209 0.073410
0.862344 0.480015 0.107485
0.921977 0.456120 0.135365
0.918269 0.428089 0.142047
0.913950 0.397571 0.148914
0.908976 0.363497 0.155811
0.907709 0.355059 0.157489
0.907542 0.354006 0.157687
0.000000 0.653987 0.000003
0.000000 0.662334 0.000003
0.000000 0.670986 0.000003
0.000000 0.679378 0.000339
0.000000 0.687985 0.001071
0.000000 0.697430 0.002140
0.000000 0.707135 0.002994
0.000000 0.717206 0.004032
0.000000 0.727551 0.004963
0.000000 0.737912 0.005863
0.000000 0.748242 0.006855
0.000000 0.759046 0.007801
0.000000 0.770307 0.008793
0.000000 0.782072 0.010136
0.000000 0.779340 0.013874
0.025268 0.767957 0.019307
0.054108 0.759366 0.027074
0.079117 0.755078 0.042135
0.122956 0.747144 0.053092
0.188951 0.731914 0.054527
0.263582 0.712688 0.048165
0.344501 0.689509 0.033868
0.431309 0.660684 0.017069
0.552908 0.635080 0.006039
0.657126 0.609169 0.017103
0.750770 0.580497 0.047104
0.839654 0.553121 0.080812
0.925669 0.527440 0.117099
0.927531 0.498051 0.126194
0.923564 0.468495 0.132404
0.919169 0.435474 0.140140
0.918116 0.427234 0.142200
0.917963 0.426197 0.142444
0.000000 0.713147 0.003482
0.000000 0.721219 0.004429
0.000000 0.729031 0.005100
0.000000 0.736981 0.005771
0.000000 0.745557 0.006717
0.000000 0.754438 0.007450
0.000000 0.763868 0.008259
0.000000 0.773603 0.009235
0.000000 0.783613 0.010044
0.000000 0.793913 0.011036
0.000000 0.804212 0.012180
0.000000 0.814894 0.013081
0.000000 0.825957 0.014012
0.000000 0.837294 0.015065
0.000000 0.848998 0.016041
0.004607 0.844772 0.020360
0.031219 0.831923 0.025075
0.063599 0.822417 0.033727
0.091523 0.818083 0.050055
0.141908 0.807539 0.059486
0.214739 0.791318 0.060082
0.294802 0.771405 0.052698
0.385456 0.746014 0.036051
0.479207 0.716502 0.018413
0.604926 0.689447 0.008054
0.711662 0.661187 0.019775
0.809304 0.631722 0.052201
0.901545 0.603827 0.088016
0.935420 0.573828 0.107975
0.932826 0.544042 0.115329
0.929087 0.510716 0.123173
0.927928 0.502187 0.125095
0.927882 0.501424 0.125324
0.000000 0.773466 0.009220
0.000000 0.781278 0.010075
0.000000 0.788847 0.010670
0.000000 0.796659 0.011326
0.000000 0.804991 0.012165
0.000000 0.813841 0.012989
0.000000 0.823118 0.013752
0.000000 0.832747 0.014531
0.000000 0.842528 0.015446
0.000000 0.852446 0.016270
0.000000 0.862426 0.017155
0.000000 0.872970 0.018376
0.000000 0.883681 0.019337
0.000000 0.894698 0.020283
0.000000 0.905883 0.021336
0.000000 0.917328 0.022237
0.010253 0.912507 0.026982
