luts/Leeming LUT Pro 4 - Rec709 OTF - GoPro 11 12 13 - GP-Log.cube
# Leeming LUT Pro 4
# (C) 2024 Visceral Psyche Films
# Range: Full In / Full Out
# Type: 33 x 33 x 33 Cube LUT
# Colour Space: Rec709
# Output Gamma: BT.1886
# Exposure: ETTR
# Build Number: 2024111405
# OTF Build Number: 2024113005
TITLE "Leeming LUT Pro 4 - Rec709 OTF - GoPro 11 12 13 - GP-Log"
LUT_3D_SIZE 9
DOMAIN_MIN 0.0 0.0 0.0
DOMAIN_MAX 1.0 1.0 1.0
0.000000 0.000000 0.000000
0.013657 0.000000 0.003006
0.049286 0.000000 0.002610
0.108612 0.000000 0.001879
0.184097 0.000000 0.005588
0.294587 0.000000 0.023016
0.439835 0.000000 0.068002
0.626619 0.000000 0.146192
0.765780 0.000000 0.212525
0.000000 0.018555 0.000000
0.019303 0.017029 0.000702
0.114990 0.000000 0.000002
0.215424 0.000000 0.000004
0.295746 0.000000 0.000006
0.398790 0.000000 0.024025
0.537553 0.000000 0.077449
0.719500 0.000000 0.162765
0.812502 0.000000 0.217652
0.000000 0.068162 0.000000
0.000000 0.091905 0.000000
0.078400 0.067567 0.000002
0.222857 0.033264 0.013081
0.373936 0.002242 0.009802
0.522477 0.000000 0.021693
0.658418 0.000000 0.072386
0.804514 0.003903 0.161179
0.809076 0.000271 0.193543
0.000000 0.156939 0.000001
0.000000 0.194354 0.000001
0.010925 0.196963 0.000001
0.176058 0.155718 0.000003
0.359440 0.109635 0.036338
0.553901 0.068358 0.062495
0.776941 0.020749 0.083113
0.793527 0.007885 0.115767
0.802454 0.005490 0.146408
0.000000 0.273854 0.000001
0.000000 0.313619 0.000001
0.000000 0.348913 0.000002
0.071183 0.324895 0.010165
0.298510 0.268359 0.001730
0.534445 0.203385 0.064906
0.781503 0.148116 0.130035
0.823755 0.053357 0.111312
0.796487 0.009869 0.102645
0.000000 0.438149 0.000002
0.000000 0.476540 0.000002
0.000000 0.522470 0.000002
0.014038 0.529733 0.000003
0.152681 0.501793 0.029592
0.461125 0.422918 0.007105
0.757653 0.336504 0.109771
0.882182 0.244064 0.164263
0.863261 0.166518 0.156266
0.000000 0.653987 0.000003
0.000000 0.687985 0.001071
0.000000 0.727551 0.004963
0.000000 0.770307 0.008793
0.054108 0.759366 0.027074
0.263582 0.712688 0.048165
0.657126 0.609169 0.017103
0.927531 0.498051 0.126194
0.917963 0.426197 0.142444
0.000000 0.904052 0.021169
0.000000 0.933197 0.023519
0.000000 0.968140 0.026097
0.000000 1.000000 0.028188
0.000000 1.000000 0.030202
0.098938 1.000000 0.056098
0.413364 0.954040 0.060666
0.888757 0.829646 0.030078
0.943064 0.758340 0.062565
0.000000 1.000000 0.031301
0.000000 1.000000 0.031316
0.000000 1.000000 0.031316
0.000000 1.000000 0.031316
0.000000 1.000000 0.031316
0.022171 1.000000 0.038275
0.254351 1.000000 0.082697
0.703116 0.999999 0.033341
0.920450 0.991819 0.019123
0.001694 0.000000 0.012009
0.017761 0.000000 0.018784
0.058182 0.000000 0.015672
0.122650 0.000000 0.013140
0.202271 0.000000 0.011341
0.314683 0.000000 0.023841
0.458894 0.000000 0.070810
0.644503 0.000000 0.149977
0.783007 0.000000 0.216447
0.000000 0.015091 0.026169
0.018631 0.018631 0.018647
0.111847 0.000000 0.006304
0.239045 0.000000 0.000005
0.316925 0.000000 0.000006
0.419022 0.000000 0.022408
0.556688 0.000000 0.077877
0.737536 0.000000 0.164795
0.812075 0.000000 0.214692
0.000000 0.074525 0.000000
0.000000 0.108476 0.000001
0.065629 0.084962 0.000001
0.219073 0.047714 0.016010
0.373279 0.015822 0.017035
0.543991 0.000000 0.017177
0.676683 0.000000 0.074995
0.803598 0.004620 0.154617
0.808328 0.000881 0.188294
0.000000 0.170977 0.000001
0.000000 0.209125 0.000001
0.004944 0.214832 0.000001
0.163011 0.178271 0.000003
0.355152 0.127442 0.035590
0.551841 0.084594 0.066416
0.782754 0.035916 0.093215
0.789361 0.007306 0.116072
0.801218 0.006436 0.137420
0.000000 0.288960 0.000001
0.000000 0.328664 0.000002
0.000000 0.369528 0.000002
0.061158 0.345327 0.009738
0.283892 0.290012 0.000006
0.530600 0.221483 0.062159
0.779138 0.164810 0.130645
0.833841 0.069562 0.121368
0.794992 0.010876 0.091582
0.000000 0.452858 0.000002
0.000000 0.491052 0.000002
0.000000 0.536630 0.000003
0.009002 0.547128 0.000003
0.142671 0.521294 0.032674
0.448826 0.442633 0.001138
0.753365 0.353793 0.104598
0.886729 0.261170 0.164599
0.866862 0.184600 0.159517
0.000000 0.667217 0.000003
0.000000 0.700482 0.002338
0.000000 0.739819 0.006046
0.000000 0.782423 0.010105
0.048462 0.774259 0.025701
0.253221 0.730297 0.051919
0.646490 0.626869 0.011595
0.929438 0.514211 0.122181
0.920130 0.442600 0.138507
0.000000 0.915298 0.022069
0.000000 0.944275 0.024342
0.000000 0.978944 0.026860
0.000000 1.000000 0.028692
0.000000 1.000000 0.030599
0.093140 1.000000 0.054481
0.402638 0.969787 0.064419
0.879342 0.844997 0.024707
0.942789 0.773553 0.058933
0.000000 1.000000 0.031316
0.000000 1.000000 0.031316
0.000000 1.000000 0.031316
0.000000 1.000000 0.031316
0.000000 1.000000 0.031316
0.017837 1.000000 0.037390
0.246370 1.000000 0.082896
0.696448 0.999999 0.034165
0.918161 0.999998 0.019368
0.002701 0.000000 0.042420
0.018403 0.000000 0.067811
0.066193 0.000000 0.071687
0.133241 0.000000 0.066073
0.213425 0.000000 0.068318
0.327363 0.000000 0.078010
0.475953 0.000000 0.104197
0.666598 0.000000 0.154325
0.803744 0.000000 0.220872
0.000001 0.001373 0.162280
0.014497 0.007644 0.144839
0.121095 0.000000 0.129108
0.232438 0.000000 0.087865
0.319779 0.000000 0.071021
0.430665 0.000000 0.074365
0.575395 0.000000 0.097103
0.759340 0.000000 0.166977
0.811526 0.000000 0.210862
0.000001 0.055085 0.105959
0.000000 0.095888 0.067079
0.076356 0.076341 0.076373
0.217822 0.049850 0.069753
0.375203 0.021391 0.056678
0.548874 0.000000 0.035198
0.697649 0.000000 0.084014
0.802362 0.005551 0.145767
0.807321 0.001690 0.181122
0.000000 0.162997 0.020005
0.000000 0.207034 0.006303
0.009140 0.223362 0.013841
0.153810 0.193881 0.010990
0.348789 0.148881 0.034324
0.549979 0.104309 0.069529
0.788217 0.054685 0.104232
0.794870 0.008069 0.115524
0.799616 0.007611 0.125747
0.000000 0.298741 0.000001
0.000000 0.342412 0.000002
0.000000 0.394034 0.000002
0.050247 0.369360 0.008380
0.265780 0.315754 0.000006
0.526129 0.244097 0.058482
0.777398 0.185531 0.131149
0.845072 0.090681 0.132844
0.797861 0.018628 0.086073
0.000000 0.470666 0.000002
0.000000 0.508630 0.000002
0.000000 0.553766 0.000003
0.004196 0.569788 0.000003
0.131074 0.544549 0.035161
0.433095 0.465964 0.000009
0.748055 0.374865 0.097839
0.891994 0.281480 0.164446
0.872081 0.205794 0.162112
0.000000 0.682934 0.000766
0.000000 0.715634 0.003803
0.000000 0.754575 0.007465
0.000000 0.796827 0.011341
0.041961 0.792433 0.024388
0.240892 0.751125 0.055581
0.633291 0.648019 0.007078
0.931819 0.534337 0.117664
0.922984 0.462300 0.134159
0.000000 0.928787 0.023244
0.000000 0.957627 0.025441
0.000000 0.992097 0.027746
0.000000 1.000000 0.029378
0.000000 1.000000 0.031057
0.086060 1.000000 0.052497
0.389561 0.988800 0.068859
0.867043 0.863476 0.018679
0.942331 0.791818 0.054493
0.000000 1.000000 0.031316
0.000000 1.000000 0.031316
0.000000 1.000000 0.031316
0.000000 1.000000 0.031316
0.000000 1.000000 0.031316
0.012405 1.000000 0.036123
0.236757 1.000000 0.083109
0.688208 0.999999 0.035081
0.914895 0.999998 0.019230
0.002152 0.000000 0.099549
0.018205 0.000000 0.143770
0.066713 0.000000 0.151918
0.143037 0.000000 0.153705
0.228822 0.000000 0.147604
0.341417 0.000000 0.153495
0.488939 0.000000 0.179789
0.679080 0.000000 0.227035
0.819598 0.000000 0.267214
0.000002 0.000000 0.339738
0.005831 0.000000 0.322099
0.113711 0.000000 0.303576
0.232149 0.000000 0.246878
0.328066 0.000000 0.194007
0.438753 0.000000 0.180139
0.585177 0.000000 0.194195
0.771457 0.000000 0.231903
0.815646 0.000000 0.239427
0.000002 0.033035 0.289967
0.000001 0.066224 0.267018
0.075915 0.058258 0.254262
0.233890 0.024596 0.243172
0.386950 0.000000 0.205681
0.555193 0.000000 0.174771
0.702761 0.000000 0.178054
0.808634 0.000637 0.190430
0.807474 0.001583 0.182129
0.000001 0.131930 0.225896
0.000001 0.183276 0.190922
0.000001 0.211704 0.168293
0.171054 0.171037 0.171087
0.344670 0.137574 0.166757
0.554480 0.099883 0.165417
0.790506 0.059476 0.153137
0.796472 0.009884 0.102508
0.796976 0.008435 0.115341
0.000000 0.277836 0.104907
0.000000 0.323766 0.079165
0.000000 0.379676 0.056704
0.064301 0.360937 0.077580
0.268726 0.316593 0.060553
0.522970 0.258135 0.094158
0.775674 0.208389 0.130371
0.853220 0.113447 0.142167
0.813883 0.039472 0.101516
0.000000 0.469216 0.033679
0.000000 0.511544 0.026156
0.000000 0.561747 0.022784
0.004791 0.588831 0.023593
0.119706 0.567559 0.041387
0.413441 0.491492 0.001718
0.741463 0.399205 0.089538
0.897701 0.303941 0.163882
0.878306 0.229004 0.163775
0.000000 0.699627 0.002170
0.000000 0.732342 0.005481
0.000000 0.770643 0.008808
0.000000 0.813032 0.012913
0.035888 0.814146 0.024663
0.226686 0.773754 0.058495
0.617971 0.670938 0.006879
0.933985 0.556280 0.112262
0.925669 0.484044 0.129276
0.000000 0.943497 0.024282
0.000000 0.972336 0.026525
0.000000 1.000000 0.028158
0.000000 1.000000 0.030111
0.000000 1.000000 0.031316
0.078095 1.000000 0.050147
0.374485 1.000000 0.072567
0.853447 0.883877 0.015719
0.941400 0.812068 0.049229
0.000000 1.000000 0.031316
0.000000 1.000000 0.031316
0.000000 1.000000 0.031316
0.000000 1.000000 0.031316
0.000000 1.000000 0.031316
0.006255 1.000000 0.034612
0.226305 1.000000 0.083216
0.679038 0.999999 0.036118
0.908792 0.999998 0.019459
0.001405 0.000000 0.176774
0.017473 0.000000 0.237519
0.071810 0.000000 0.244615
0.143359 0.000000 0.251499
0.240312 0.000000 0.255423
0.361086 0.000000 0.253380
0.506961 0.000000 0.273693
0.694857 0.000000 0.317764
0.831837 0.000000 0.352175
0.000004 0.000000 0.524400
0.000004 0.000000 0.506182
0.107319 0.000000 0.473590
0.214481 0.000000 0.396123
0.332629 0.000000 0.350471
0.453815 0.000000 0.311991
0.600421 0.000000 0.310682
0.781787 0.000000 0.335679
0.830082 0.000000 0.339800
0.000003 0.010772 0.485893
0.000003 0.040756 0.470115
0.072650 0.036651 0.456642
0.230046 0.002760 0.442073
0.400577 0.000000 0.417765
0.564976 0.000000 0.359052
0.708255 0.000000 0.328857
0.827335 0.000000 0.320833
0.824862 0.000000 0.303530
0.000002 0.101670 0.440345
0.000002 0.143603 0.420616
0.005709 0.176410 0.405525
0.171879 0.146837 0.383844
0.366659 0.102432 0.377148
0.573189 0.061140 0.349868
0.794123 0.023190 0.318530
0.816866 0.000000 0.247911
0.813906 0.000000 0.227388
0.000002 0.235065 0.372764
0.000002 0.287633 0.341116
0.000001 0.354788 0.290091
0.038027 0.343984 0.292243
0.286015 0.285999 0.286067
0.511802 0.243273 0.284437
0.779291 0.191849 0.289202
0.867076 0.111036 0.228915
0.829050 0.052198 0.147003
0.000001 0.440589 0.207067
0.000001 0.485284 0.181233
0.000000 0.540338 0.160269
0.000000 0.581995 0.147359
0.139971 0.544701 0.162315
0.423466 0.481146 0.126430
0.734475 0.406558 0.166397
0.902949 0.329516 0.162830
0.885234 0.255479 0.164538
0.000000 0.687191 0.098729
0.000000 0.724682 0.083257
0.000000 0.769422 0.070287
0.000000 0.817503 0.062810
0.039963 0.831953 0.065954
0.213946 0.793698 0.069710
0.597540 0.697443 0.008558
0.936259 0.581564 0.106357
0.928828 0.509038 0.123508
0.000000 0.959870 0.029851
0.000000 0.988984 0.027410
0.000000 1.000000 0.029134
0.000000 1.000000 0.030614
0.000000 1.000000 0.031301
0.070007 1.000000 0.047950
0.356357 1.000000 0.075405
0.837395 0.906765 0.015414
0.940439 0.835200 0.043446
0.000000 1.000000 0.031316
0.000000 1.000000 0.031316
0.000000 1.000000 0.031316
0.000000 1.000000 0.031316
0.000000 1.000000 0.031316
0.000000 1.000000 0.032873
0.214372 1.000000 0.083582
0.668448 0.999999 0.037461
0.907922 0.999998 0.019871
0.001528 0.000000 0.285447
0.017032 0.000000 0.369081
0.076388 0.000000 0.373736
0.153278 0.000000 0.377674
0.241732 0.000000 0.387961
0.377231 0.000000 0.395822
0.532092 0.000000 0.402768
0.718876 0.000000 0.435349
0.852848 0.000000 0.464099
0.000004 0.000000 0.605882
0.000005 0.000000 0.724734
0.097844 0.000000 0.620823
0.208973 0.000000 0.549795
0.317722 0.000000 0.511162
0.462147 0.000000 0.482646
0.617222 0.000000 0.456450
0.802128 0.000000 0.470003
0.854100 0.000000 0.469928
0.000005 0.000000 0.708345
0.002384 0.010589 0.699672
0.069997 0.012450 0.688015
0.221197 0.000000 0.664648
0.381963 0.000000 0.638727
0.560674 0.000000 0.583784
0.720906 0.000000 0.513291
0.857807 0.000000 0.487750
0.852528 0.000000 0.462359
0.007420 0.065979 0.680430
0.005604 0.105515 0.666240
0.017338 0.145128 0.652187
0.172781 0.114349 0.633756
0.369926 0.068099 0.626526
0.593470 0.022702 0.612598
0.811787 0.000000 0.546190
0.853596 0.000000 0.467517
0.845585 0.000000 0.428835
0.000003 0.194109 0.635814
0.000003 0.238070 0.619685
0.000003 0.289921 0.595881
0.066959 0.294605 0.589016
0.285208 0.250124 0.554473
0.539742 0.192230 0.551867
0.808803 0.135588 0.534491
0.891262 0.056317 0.462286
0.844982 0.003322 0.373920
0.000003 0.383169 0.555522
0.000003 0.434607 0.533427
0.000002 0.504799 0.503077
0.000002 0.558602 0.456156
0.102756 0.522210 0.461727
0.441032 0.440999 0.441102
0.717112 0.385364 0.441014
0.910168 0.307664 0.415687
0.900982 0.241455 0.357076
0.000001 0.651348 0.362740
0.000001 0.691021 0.333962
0.000001 0.737653 0.305016
0.000001 0.789091 0.277886
0.017350 0.820112 0.262764
0.240238 0.760616 0.273052
0.605552 0.675423 0.220246
0.937939 0.582739 0.246923
0.931407 0.526510 0.195043
0.000000 0.940537 0.189445
0.003403 0.973238 0.169167
0.007568 1.000000 0.144874
0.009750 1.000000 0.122001
0.008499 1.000000 0.104178
0.074753 1.000000 0.104790
0.339877 1.000000 0.093807
0.812523 0.938901 0.017397
0.937631 0.866527 0.035771
0.006744 1.000000 0.096396
0.004516 1.000000 0.090842
0.002288 1.000000 0.082419
0.000060 1.000000 0.068533
0.000000 1.000000 0.052129
0.000000 1.000000 0.031316
0.197664 1.000000 0.083337
0.654135 0.999999 0.039490
0.907922 0.999998 0.019871
0.006183 0.000000 0.431307
0.019520 0.000000 0.528078
0.083164 0.000000 0.530322
0.164371 0.000000 0.534795
0.257633 0.000000 0.538916
0.379903 0.000000 0.555338
0.550877 0.000000 0.573728
0.745443 0.000000 0.589509
0.882498 0.000000 0.614689
0.003026 0.000000 0.713472
0.001471 0.000000 0.823458
0.094198 0.000000 0.786839
0.204000 0.000000 0.725531
0.319753 0.000000 0.687005
0.451619 0.000000 0.668071
0.629995 0.000000 0.654662
0.825628 0.000000 0.643878
0.887075 0.000000 0.641530
0.000006 0.000000 0.852022
0.000006 0.000000 0.860277
0.050528 0.000000 0.870929
0.200812 0.000000 0.864935
0.370841 0.000000 0.867900
0.529013 0.000000 0.807814
0.723013 0.000000 0.749833
0.896795 0.000000 0.698018
0.891195 0.000000 0.665287
0.015218 0.023162 0.880369
0.021367 0.058608 0.889449
0.023397 0.106141 0.897125
0.175422 0.076018 0.907747
0.367059 0.027906 0.911366
0.569053 0.000000 0.884230
0.823493 0.000000 0.852405
0.902334 0.000000 0.733052
0.893240 0.000000 0.677098
0.022649 0.140733 0.901596
0.020162 0.183275 0.906494
0.015187 0.235141 0.905136
0.084509 0.248279 0.890794
0.290367 0.205705 0.864170
0.544581 0.138198 0.858421
0.834349 0.077496 0.857845
0.930388 0.007762 0.760082
0.894491 0.000000 0.684391
0.002156 0.324772 0.880341
0.000004 0.370671 0.866928
0.000004 0.422781 0.848739
0.000004 0.478614 0.827209
0.139959 0.458853 0.816362
0.438790 0.393376 0.764929
0.754956 0.319322 0.769388
0.972640 0.236693 0.734723
0.962279 0.167493 0.685405
0.000004 0.577935 0.791778
0.000004 0.621515 0.774368
0.000003 0.681666 0.746490
0.000003 0.745800 0.711669
0.000003 0.789639 0.664306
0.193685 0.730769 0.656983
0.626307 0.626274 0.626411
0.932218 0.559010 0.619167
0.924466 0.500004 0.569819
0.000002 0.896697 0.556577
0.000002 0.931457 0.530133
0.000002 0.972336 0.499189
0.000002 1.000000 0.471112
0.000001 1.000000 0.438687
0.026064 1.000000 0.415829
0.375128 1.000000 0.421435
0.820627 0.904812 0.360282
0.956616 0.846033 0.328408
0.000001 1.000000 0.417278
0.000001 1.000000 0.398891
0.000001 1.000000 0.374782
0.000001 1.000000 0.347941
0.000001 1.000000 0.317438
0.000001 1.000000 0.274774
0.211978 1.000000 0.271481
0.658714 0.999999 0.207980
0.919137 0.999998 0.129309
0.021336 0.000000 0.600527
0.027624 0.000000 0.718906
0.097433 0.000000 0.719578
0.178427 0.000000 0.722266
0.274679 0.000000 0.726997
0.399405 0.000000 0.738078
0.555167 0.000000 0.766493
0.769507 0.000000 0.797609
0.913062 0.000000 0.810888
0.025992 0.000000 0.848270
0.014060 0.000000 0.854236
0.086020 0.000000 0.855931
0.199072 0.000000 0.858420
0.318748 0.000000 0.863901
0.458457 0.000000 0.869533
0.622397 0.000000 0.868118
0.843345 0.000000 0.872914
0.919715 0.000000 0.862295
0.001806 0.000000 0.817904
0.000006 0.000000 0.851946
0.015189 0.000000 0.857394
0.165168 0.000000 0.857367
0.327827 0.000000 0.864420
0.502448 0.000000 0.883954
0.693764 0.000000 0.923661
0.925896 0.000000 0.959158
0.925163 0.000000 0.920797
0.002371 0.000000 0.865801
0.013265 0.015731 0.877958
0.021276 0.057388 0.889236
0.137564 0.043425 0.899323
0.323371 0.000000 0.900918
0.528007 0.000000 0.898786
0.764473 0.000000 0.936313
0.925911 0.000000 0.959173
0.925911 0.000000 0.959158
0.023000 0.088928 0.894576
0.023015 0.129502 0.900192
0.020406 0.180116 0.906158
0.060430 0.208300 0.914445
0.262764 0.165940 0.918110
0.522304 0.092710 0.943947
0.797622 0.035564 0.986677
0.935966 0.000000 0.968467
0.925911 0.000000 0.959158
0.013112 0.264392 0.915588
0.008519 0.308811 0.920701
0.002660 0.363652 0.927064
0.000005 0.421972 0.933061
0.127295 0.413580 0.942630
0.425470 0.346728 0.932853
0.745573 0.261230 0.986326
1.000000 0.168470 1.000000
1.000000 0.097957 1.000000
0.000005 0.513404 0.941468
0.000005 0.552299 0.944292
0.000005 0.598900 0.947100
0.000005 0.652049 0.950701
0.000005 0.711849 0.953677
0.213966 0.658700 0.966924
0.616543 0.572165 0.948726
0.998094 0.482180 1.000000
0.999954 0.417253 0.972430
0.000004 0.821210 0.956195
0.000004 0.862470 0.955310
0.000004 0.911147 0.953205
0.000004 0.962448 0.949574
0.000004 1.000000 0.941288
0.000004 1.000000 0.909824
0.327583 0.969679 0.880852
0.847547 0.847514 0.847686
0.968932 0.799538 0.825059
0.000004 1.000000 0.929218
0.000004 1.000000 0.895725
0.000004 1.000000 0.869067
0.000004 1.000000 0.839236
0.000003 1.000000 0.804613
0.000003 1.000000 0.754243
0.132252 1.000000 0.734836
0.693507 0.999998 0.713893
0.962842 0.999997 0.673599
0.037511 0.000000 0.719607
0.043875 0.000000 0.836398
0.107902 0.000000 0.855977
0.191275 0.000000 0.858145
0.288352 0.000000 0.862511
0.412467 0.000000 0.872233
0.568397 0.000000 0.897368
0.771492 0.000000 0.937610
0.925881 0.000000 0.959143
0.039954 0.000000 0.855380
0.029929 0.000000 0.854999
0.079672 0.000000 0.855839
0.189581 0.000000 0.858191
0.308234 0.000000 0.863335
0.449607 0.000000 0.876781
0.617943 0.000000 0.908569
0.834755 0.000000 0.947972
0.925911 0.000000 0.959173
0.007681 0.000000 0.854022
0.001288 0.000000 0.826480
0.000006 0.000000 0.852831
0.143210 0.000000 0.856176
0.303870 0.000000 0.863137
0.479834 0.000000 0.880368
0.672599 0.000000 0.919648
0.909111 0.000000 0.957159
0.925911 0.000000 0.959173
0.000006 0.000000 0.854418
0.003043 0.000000 0.866503
0.015264 0.024077 0.880491
0.107855 0.021346 0.890839
0.289069 0.000000 0.888482
0.499976 0.000000 0.887891
0.724006 0.000000 0.929018
0.925911 0.000000 0.959173
0.925911 0.000000 0.959173
0.020711 0.052886 0.888229
0.023046 0.091064 0.894897
0.022664 0.140428 0.901565
0.043661 0.180483 0.909988
0.238289 0.139649 0.915957
0.498363 0.067563 0.938682
0.767058 0.012752 0.972057
0.925911 0.000000 0.959173
0.925911 0.000000 0.959173
0.016790 0.223345 0.910919
0.013051 0.266696 0.916000
0.007360 0.320698 0.922120
0.000478 0.381352 0.928849
0.104254 0.385839 0.939043
0.402307 0.319719 0.931220
0.727033 0.232650 0.983059
1.000000 0.141171 1.000000
1.000000 0.072582 1.000000
0.000005 0.475943 0.938432
0.000005 0.515510 0.941636
0.000005 0.562203 0.944765
0.000005 0.614679 0.948305
0.000005 0.675425 0.951830
0.191077 0.636727 0.965414
0.596325 0.549474 0.946346
0.980027 0.456392 1.000000
1.000000 0.386262 1.000000
0.000005 0.781353 0.956623
0.000005 0.823362 0.956348
0.000004 0.873075 0.955066
0.000004 0.926513 0.952182
0.000004 0.984298 0.947224
0.000004 1.000000 0.939030
0.313576 0.940580 0.973626
0.838103 0.820245 0.980623
1.000000 0.760384 1.000000
0.000004 1.000000 0.940586
0.000004 1.000000 0.929035
0.000004 1.000000 0.919849
0.000004 1.000000 0.919849
0.000004 1.000000 0.919849
0.000004 1.000000 0.918690
0.106909 1.000000 0.949010
0.658123 0.999998 0.967010
1.000000 0.999996 1.000000
