luts/Leeming LUT Pro 4 - Rec709 OTF - GoPro 11 12 13 - GP-Log.cube
# Leeming LUT Pro 4
# (C) 2024 Visceral Psyche Films
# Range: Full In / Full Out
# Type: 33 x 33 x 33 Cube LUT
# Colour Space: Rec709
# Output Gamma: BT.1886
# Exposure: ETTR
# Build Number: 2024111405
# OTF Build Number: 2024113005
TITLE "Leeming LUT Pro 4 - Rec709 OTF - GoPro 11 12 13 - GP-Log"
LUT_3D_SIZE 5
DOMAIN_MIN 0.0 0.0 0.0
DOMAIN_MAX 1.0 1.0 1.0
0.000000 0.000000 0.000000
0.049286 0.000000 0.002610
0.184097 0.000000 0.005588
0.439835 0.000000 0.068002
0.765780 0.000000 0.212525
0.000000 0.068162 0.000000
0.078400 0.067567 0.000002
0.373936 0.002242 0.009802
0.658418 0.000000 0.072386
0.809076 0.000271 0.193543
0.000000 0.273854 0.000001
0.000000 0.348913 0.000002
0.298510 0.268359 0.001730
0.781503 0.148116 0.130035
0.796487 0.009869 0.102645
0.000000 0.653987 0.000003
0.000000 0.727551 0.004963
0.054108 0.759366 0.027074
0.657126 0.609169 0.017103
0.917963 0.426197 0.142444
0.000000 1.000000 0.031301
0.000000 1.000000 0.031316
0.000000 1.000000 0.031316
0.254351 1.000000 0.082697
0.920450 0.991819 0.019123
0.002701 0.000000 0.042420
0.066193 0.000000 0.071687
0.213425 0.000000 0.068318
0.475953 0.000000 0.104197
0.803744 0.000000 0.220872
0.000001 0.055085 0.105959
0.076356 0.076341 0.076373
0.375203 0.021391 0.056678
0.697649 0.000000 0.084014
0.807321 0.001690 0.181122
0.000000 0.298741 0.000001
0.000000 0.394034 0.000002
0.265780 0.315754 0.000006
0.777398 0.185531 0.131149
0.797861 0.018628 0.086073
0.000000 0.682934 0.000766
0.000000 0.754575 0.007465
0.041961 0.792433 0.024388
0.633291 0.648019 0.007078
0.922984 0.462300 0.134159
0.000000 1.000000 0.031316
0.000000 1.000000 0.031316
0.000000 1.000000 0.031316
0.236757 1.000000 0.083109
0.914895 0.999998 0.019230
0.001405 0.000000 0.176774
0.071810 0.000000 0.244615
0.240312 0.000000 0.255423
0.506961 0.000000 0.273693
0.831837 0.000000 0.352175
0.000003 0.010772 0.485893
0.072650 0.036651 0.456642
0.400577 0.000000 0.417765
0.708255 0.000000 0.328857
0.824862 0.000000 0.303530
0.000002 0.235065 0.372764
0.000001 0.354788 0.290091
0.286015 0.285999 0.286067
0.779291 0.191849 0.289202
0.829050 0.052198 0.147003
0.000000 0.687191 0.098729
0.000000 0.769422 0.070287
0.039963 0.831953 0.065954
0.597540 0.697443 0.008558
0.928828 0.509038 0.123508
0.000000 1.000000 0.031316
0.000000 1.000000 0.031316
0.000000 1.000000 0.031316
0.214372 1.000000 0.083582
0.907922 0.999998 0.019871
0.006183 0.000000 0.431307
0.083164 0.000000 0.530322
0.257633 0.000000 0.538916
0.550877 0.000000 0.573728
0.882498 0.000000 0.614689
0.000006 0.000000 0.852022
0.050528 0.000000 0.870929
0.370841 0.000000 0.867900
0.723013 0.000000 0.749833
0.891195 0.000000 0.665287
0.022649 0.140733 0.901596
0.015187 0.235141 0.905136
0.290367 0.205705 0.864170
0.834349 0.077496 0.857845
0.894491 0.000000 0.684391
0.000004 0.577935 0.791778
0.000003 0.681666 0.746490
0.000003 0.789639 0.664306
0.626307 0.626274 0.626411
0.924466 0.500004 0.569819
0.000001 1.000000 0.417278
0.000001 1.000000 0.374782
0.000001 1.000000 0.317438
0.211978 1.000000 0.271481
0.919137 0.999998 0.129309
0.037511 0.000000 0.719607
0.107902 0.000000 0.855977
0.288352 0.000000 0.862511
0.568397 0.000000 0.897368
0.925881 0.000000 0.959143
0.007681 0.000000 0.854022
0.000006 0.000000 0.852831
0.303870 0.000000 0.863137
0.672599 0.000000 0.919648
0.925911 0.000000 0.959173
0.020711 0.052886 0.888229
0.022664 0.140428 0.901565
0.238289 0.139649 0.915957
0.767058 0.012752 0.972057
0.925911 0.000000 0.959173
0.000005 0.475943 0.938432
0.000005 0.562203 0.944765
0.000005 0.675425 0.951830
0.596325 0.549474 0.946346
1.000000 0.386262 1.000000
0.000004 1.000000 0.940586
0.000004 1.000000 0.919849
0.000004 1.000000 0.919849
0.106909 1.000000 0.949010
1.000000 0.999996 1.000000
